resources/svg/windows.svg

<svg viewBox="0 0 24 24"><path fill="currentColor" fill-rule="evenodd" d="M23.923 0L10.959 1.893v9.588l12.964-.102V0zM0 3.398l.009 8.155l9.773-.055l-.004-9.432L0 3.398zm.008 17.283l9.773 1.344l-.008-9.44l-9.766-.063l.001 8.159zm10.951 1.49L23.923 24l.004-11.326l-12.986-.022l.018 9.519z"/></svg>

<svg xmlns="http://www.w3.org/2000/svg" viewBox="0 0 24 24" fill="currentColor"><path fill="currentColor" fill-rule="evenodd" d="M23.923,0 L10.959,1.893 L10.959,11.481 L23.923,11.379 L23.923,0 Z M0,3.398 L0.009,11.553 L9.782,11.498 L9.778,2.066 L0,3.398 Z M0.008,20.681 L9.781,22.025 L9.773,12.585 L0.007,12.522 L0.008,20.681 Z M10.959,22.171 L23.923,24 L23.927,12.674 L10.941,12.652 L10.959,22.171 Z"/></svg>
